X:1
T:Title
%%score { ( 1 4 ) | ( 2 3 ) }
L:1/8
M:4/4
K:Bb
V:1 treble nm="Grand Piano"
V:4 treble 
V:2 bass 
V:3 bass 
V:1
 z4 z2[Q:1/4=100] [DF]2 | [DFd]2 [DFd]2 [DFd]2 .[DFc]2 | [CEA]2 .[B,EG]2 [A,CEG]2 [F,A,EF]2 | %3
 [Dd]2 [Dd]2 [Dd]2 cB |[M:3/4] [EA]2 [EG]2 [CEF]2 |[M:1/4] [CEF]2 | %6
[M:4/4] [B,FB]3 [^FB] [B,GB]2 [GB]2 | [CGc]3 [_Ac] [C=Ac]2 [CGAc]2 | %8
 [D^FAd]2 [DGBd]2 [EGBd]2 [EGc]2 |[M:15/8] [DFB]2 [CEFA]-[CEFA] [B,DB]2- [B,DB] z2 z6 | %10
[M:4/4] [GB]4 [FB]4 |] %11
V:2
 z4 z2 [B,,F,]2 | [B,,B,]2 [F,,F,]2 [B,,B,]2 z[K:treble] B | C,2 z A A,,2 F,,2 | %3
 [B,,B,]2 [F,,F,]2 [B,,B,]2 [F,,F,]2 |[M:3/4] [C,C]2 [B,,B,]2 [A,,A,]2 |[M:1/4] [F,,F,]2 | %6
[M:4/4] [D,,D,]2 z B, [E,,E,]2 [B,,B,]2 | [=E,,=E,]2 z C [F,,F,]2 [_E,,_E,]2 | %8
 [D,,D,]2 [G,,G,]2 [E,,E,]2 [E,,E,]2 | %9
[M:15/8] [F,,F,]2 [F,,,F,,]-[F,,,F,,] [B,,,B,,]2- [B,,,B,,] z2 z6 |[M:4/4] [E,E]4 [B,D]4 |] %11
V:3
 x8 | z4 z2 [F,,F,]2[K:treble] | z2 B,,2 z4 | x8 |[M:3/4] x6 |[M:1/4] x2 |[M:4/4] z2 B,,2 z4 | %7
 z2 C,2 z4 | x8 |[M:15/8] x15 |[M:4/4] x8 |] %11
V:4
 x8 | x8 | x8 | z4 z2 [DF]2 |[M:3/4] x6 |[M:1/4] x2 |[M:4/4] x8 | x8 | x8 |[M:15/8] x15 | %10
[M:4/4] x8 |] %11

